P2
72 48
255
116 115 114 113 112 111 111 110 109 109 108 108 107 107 106 106 106 106 106 106 106 106 106 107 107 108 108 109 109 110 111 111 112 113 114 115 115 116 117 118 119 120 120 121 122 122 123 123 124 124 124 125 125 125 125 125 125 125 125 124 124 123 123 122 122 121 120 120 119 118 117 116
116 115 114 113 112 111 111 110 109 109 108 108 107 107 106 106 106 106 106 106 106 106 106 107 107 108 108 109 109 110 111 111 112 113 114 115 115 116 117 118 119 120 120 121 122 122 123 123 124 124 125 125 125 125 125 125 125 125 125 124 124 124 123 122 122 121 120 120 119 118 117 116
116 115 114 113 112 111 111 110 109 109 108 108 107 107 107 106 106 106 106 106 106 106 107 107 107 108 108 109 109 110 111 111 112 113 114 115 115 116 117 118 119 120 120 121 122 122 123 124 124 124 125 125 125 125 125 125 125 125 125 124 124 124 123 123 122 121 120 120 119 118 117 116
116 115 114 113 112 111 111 110 109 109 108 108 107 107 107 106 106 106 106 106 106 106 107 107 107 108 108 109 109 110 111 111 112 113 114 115 115 116 117 118 119 120 120 121 122 122 123 123 124 124 125 125 125 125 125 125 125 125 125 124 124 124 123 123 122 121 120 120 119 118 117 116
116 115 114 113 112 111 111 110 109 109 108 108 108 107 107 107 107 107 107 107 107 107 107 107 108 108 108 109 109 110 111 111 112 113 114 115 115 116 117 118 119 120 120 121 122 122 123 123 124 124 125 125 125 125 125 125 125 125 125 124 124 124 123 122 122 121 120 120 119 118 117 116
116 115 114 113 112 112 111 110 110 109 109 108 108 108 108 107 107 107 107 107 107 107 108 108 108 108 109 109 110 110 111 112 112 113 114 115 115 116 117 118 119 119 120 121 121 122 123 123 124 124 124 124 125 125 125 125 125 125 124 124 124 123 123 122 122 121 120 120 119 118 117 116
116 115 114 113 112 112 111 110 110 110 109 109 109 108 108 108 108 108 108 108 108 108 108 108 109 109 109 110 110 110 111 112 112 113 114 115 115 116 117 118 119 119 120 121 121 122 122 123 123 123 124 124 124 124 124 124 124 124 124 124 123 123 123 122 122 121 120 120 119 118 117 116
116 115 114 113 113 112 111 111 111 110 110 110 110 110 110 110 110 110 110 110 110 110 110 110 110 110 110 110 110 111 111 112 112 113 114 115 115 116 117 118 118 119 120 120 121 121 122 122 122 123 123 123 123 124 124 124 124 124 123 123 123 123 122 122 121 121 120 119 119 118 117 116
116 115 114 113 113 112 112 112 111 111 111 111 111 112 112 112 112 112 112 112 112 112 112 112 111 111 111 111 111 112 112 112 113 113 114 115 115 116 117 117 118 119 119 120 120 120 121 121 121 122 122 122 122 122 123 123 123 123 123 123 122 122 122 121 121 121 120 119 119 118 117 116
116 115 114 114 113 113 113 113 113 113 113 113 114 114 115 115 116 116 116 116 116 115 115 114 114 113 113 113 113 113 113 113 113 114 114 115 115 116 116 117 117 118 118 119 119 119 120 120 120 120 121 121 121 121 121 121 121 122 122 122 122 121 121 121 121 120 120 119 118 118 117 116
116 115 115 114 114 114 114 114 114 115 116 116 117 118 119 119 120 120 120 120 120 119 119 118 117 116 116 115 114 114 114 114 114 114 114 115 115 115 116 116 117 117 117 118 118 118 118 118 119 119 119 119 119 119 119 120 120 120 120 120 120 120 120 120 120 120 119 119 118 118 117 116
116 115 115 115 115 115 115 116 117 118 119 120 121 123 124 125 125 126 126 126 125 125 124 123 121 120 119 118 117 116 115 115 114 114 114 115 115 115 115 116 116 116 116 116 116 116 116 116 117 117 117 117 117 117 117 118 118 118 118 119 119 119 119 119 119 119 119 118 118 117 117 116
116 116 116 116 116 117 117 119 120 121 123 125 126 128 129 130 131 131 131 131 131 130 129 128 126 125 123 121 120 118 117 116 115 115 115 115 115 115 115 115 115 115 115 115 115 114 114 114 114 114 114 114 115 115 115 115 116 116 116 117 117 117 118 118 118 118 118 118 117 117 117 116
116 116 116 117 117 119 120 121 123 125 127 129 131 132 133 134 135 135 135 135 135 134 133 132 131 129 127 125 123 121 119 118 117 116 115 115 114 114 114 114 114 113 113 113 113 112 112 112 112 112 112 112 112 113 113 113 113 114 114 115 115 116 116 116 117 117 117 117 117 117 117 117
116 116 117 118 119 121 123 125 127 129 131 133 134 135 135 135 135 135 135 135 135 135 135 135 134 133 131 129 127 124 122 120 118 117 116 115 114 113 113 113 112 112 111 111 111 111 110 110 110 110 110 111 111 111 111 111 112 112 112 113 113 114 114 115 115 116 116 116 116 116 116 117
116 117 118 120 121 123 126 128 131 133 134 135 135 134 133 131 130 129 128 129 130 131 133 134 135 135 134 132 130 128 125 122 120 118 116 115 114 113 112 111 111 110 110 109 109 109 109 109 109 110 110 110 110 110 110 111 111 111 111 111 112 112 113 113 114 114 115 115 116 116 116 117
116 118 119 121 123 126 129 131 133 134 135 134 131 128 124 120 117 115 114 115 117 120 124 128 131 133 134 134 133 130 128 125 122 119 117 115 113 112 111 110 109 109 108 108 108 108 109 109 110 111 111 112 112 112 112 111 111 111 111 111 111 111 111 112 112 113 114 114 115 115 116 117
116 118 120 123 126 128 131 133 134 134 132 128 123 116 109 102 96 93 91 93 96 102 109 116 123 128 132 134 134 132 130 127 123 120 118 115 113 111 110 109 108 108 108 108 108 109 110 112 113 114 115 116 116 116 116 115 114 113 112 111 111 110 110 111 111 112 112 113 114 115 116 117
116 119 121 124 127 130 133 134 134 132 127 119 110 99 88 78 71 66 64 66 71 78 88 99 110 119 127 131 133 133 131 128 125 121 118 115 113 111 109 108 108 107 108 109 110 112 114 116 119 121 122 123 124 124 123 121 119 117 115 114 112 111 110 110 110 111 111 112 113 114 116 118
116 119 122 126 129 132 134 134 132 127 119 108 94 79 65 54 45 39 38 39 45 54 65 79 94 107 119 127 131 133 132 129 126 122 119 115 113 110 109 108 108 108 109 111 113 116 120 124 128 131 134 135 136 136 134 131 128 125 121 118 115 113 111 110 110 110 111 111 113 114 116 118
115 119 123 127 130 133 134 133 129 122 110 95 78 61 45 32 24 19 17 19 24 32 45 60 78 95 109 121 128 132 132 130 127 123 119 115 112 110 109 108 108 109 111 114 118 123 129 135 140 145 149 152 153 152 149 145 140 135 129 124 120 116 113 111 110 110 110 111 112 114 116 118
115 119 123 127 131 133 134 132 126 116 102 84 64 46 30 18 10 6 5 6 10 18 30 46 64 84 101 115 125 130 131 130 127 123 119 115 112 110 109 108 109 111 114 119 125 132 140 148 156 163 169 172 173 172 168 162 155 147 140 132 126 120 116 113 111 110 110 111 112 113 116 119
114 119 123 128 131 133 134 131 124 112 96 76 55 36 21 10 4 2 1 2 4 10 21 36 55 76 95 111 122 129 131 130 127 123 119 115 112 110 109 109 111 114 118 124 132 141 152 163 173 183 190 195 197 195 189 182 172 162 151 141 132 125 119 115 112 111 110 110 111 113 115 119
114 119 123 128 131 133 133 130 123 110 93 73 52 33 18 8 2 0 0 0 2 8 18 33 52 73 93 109 121 128 131 130 127 123 119 115 112 110 109 110 112 116 122 130 140 151 164 178 191 203 212 218 220 217 211 201 189 176 162 150 139 130 123 117 114 111 110 110 111 113 115 119
113 118 123 127 131 133 134 131 123 111 95 75 54 35 20 9 4 1 1 1 4 9 20 35 54 75 94 110 122 128 130 130 127 123 119 115 112 110 110 111 114 118 125 134 146 159 174 190 206 219 230 237 239 236 229 217 203 187 172 158 145 134 126 119 115 112 111 110 111 113 115 118
112 118 122 127 130 133 134 132 126 115 100 82 62 43 28 16 9 5 4 5 9 16 27 43 62 82 99 114 124 129 131 129 126 122 118 114 112 110 110 111 114 120 127 137 150 164 181 198 215 230 242 250 252 249 240 227 212 195 178 162 148 137 128 121 116 113 111 110 111 112 115 118
112 117 122 126 130 133 134 133 129 121 108 93 75 57 42 29 21 16 14 16 21 29 42 57 75 92 107 119 127 131 131 129 125 121 117 114 111 110 110 111 115 120 128 138 151 166 182 200 217 233 245 253 255 252 243 230 214 197 180 164 149 138 128 121 116 113 111 110 111 112 114 118
112 116 121 125 129 132 134 134 132 126 117 105 91 76 62 50 41 35 34 35 41 50 62 76 91 105 117 125 130 132 131 128 124 120 116 113 111 109 109 111 114 119 127 136 148 163 179 196 212 227 239 246 248 245 237 224 209 193 176 161 147 136 127 120 115 112 111 110 111 112 114 117
111 116 120 124 127 130 133 134 134 131 126 118 108 96 85 74 67 62 60 62 67 74 85 96 107 117 125 130 132 132 130 127 123 119 115 112 110 109 109 110 113 117 124 133 144 156 171 186 200 214 224 231 233 230 222 211 198 183 169 155 143 133 125 119 115 112 111 110 111 112 114 116
111 115 119 122 125 129 131 134 135 135 132 128 122 114 106 99 93 89 88 89 93 99 106 114 121 127 131 133 133 132 129 125 121 118 114 112 110 108 108 109 111 115 121 128 137 148 160 172 185 196 204 210 211 209 203 194 183 171 158 147 137 128 122 117 113 111 110 110 111 112 113 116
111 115 118 120 123 126 129 132 134 135 135 134 131 128 123 119 116 113 112 113 116 119 123 128 131 134 135 134 133 130 127 123 120 116 113 111 109 108 108 108 110 113 117 123 130 138 148 158 167 176 183 187 188 186 182 175 166 157 147 138 130 123 118 115 112 111 110 110 111 112 113 115
111 114 117 119 121 124 126 129 132 134 135 136 136 135 133 132 130 129 129 129 130 132 133 135 136 136 135 133 130 127 124 121 118 115 113 111 109 108 107 107 108 110 113 117 123 129 136 143 150 157 162 165 166 165 161 156 150 143 136 129 124 119 115 113 111 110 110 110 111 112 113 115
112 114 116 117 119 121 123 126 128 130 133 134 136 136 137 137 136 136 136 136 136 137 137 136 135 134 132 130 127 124 121 119 116 114 112 110 109 108 107 107 108 109 111 113 117 121 126 131 136 141 144 146 147 146 144 140 136 131 127 122 118 115 113 111 110 110 110 111 112 112 113 115
112 114 115 116 117 119 120 122 124 126 129 131 132 134 135 136 136 137 137 137 136 136 135 134 132 130 128 126 123 121 119 117 115 113 112 110 109 108 108 107 107 108 109 110 112 115 118 122 125 128 130 132 132 132 130 128 125 122 119 117 114 112 111 111 110 110 111 111 112 113 114 114
113 114 115 115 116 117 118 119 121 122 124 126 128 129 130 132 132 133 133 133 132 131 130 129 127 126 124 122 120 118 116 115 114 113 111 111 110 109 108 108 108 108 108 109 110 111 113 115 117 119 120 121 122 121 121 119 118 116 114 113 112 111 111 111 111 111 112 112 113 114 114 115
113 114 114 114 115 115 116 116 117 119 120 121 123 124 125 126 127 127 127 127 127 126 125 124 122 121 120 118 117 116 115 114 113 112 112 111 110 110 109 109 108 108 108 108 109 109 110 111 112 113 114 115 115 115 115 114 113 113 112 111 111 111 111 111 112 112 113 113 114 114 114 115
114 114 114 114 114 114 114 114 115 115 116 117 118 119 120 120 121 121 121 121 121 120 120 119 118 117 116 115 114 114 113 113 112 112 112 111 111 111 110 110 109 109 109 109 109 109 109 110 110 111 111 111 112 112 112 111 111 111 111 111 111 111 112 112 113 113 114 114 115 115 115 115
114 114 114 113 113 113 113 113 113 113 113 114 114 115 115 116 116 116 117 116 116 116 115 115 114 114 113 113 113 112 112 112 112 112 112 112 112 112 111 111 111 111 110 110 110 110 110 110 110 110 110 110 111 111 111 111 111 111 111 112 112 113 113 114 114 115 115 115 115 115 115 115
114 114 114 113 113 112 112 112 111 111 111 112 112 112 112 112 113 113 113 113 113 112 112 112 112 111 111 111 111 111 111 112 112 112 112 112 113 113 113 112 112 112 112 112 111 111 111 111 111 111 111 111 111 111 112 112 112 113 113 113 114 114 115 115 116 116 116 116 116 116 116 115
115 114 114 113 112 112 111 111 111 110 110 110 110 110 110 110 110 110 110 110 110 110 110 110 110 110 110 110 110 111 111 111 112 112 113 113 113 113 114 114 114 114 113 113 113 113 113 113 113 113 113 113 113 113 113 114 114 114 115 115 116 116 116 117 117 117 117 117 117 117 116 116
115 114 114 113 112 112 111 110 110 110 109 109 109 109 108 108 108 108 108 108 108 108 108 109 109 109 109 109 110 110 111 111 112 112 113 113 114 114 115 115 115 115 115 115 115 115 115 115 115 115 115 115 115 115 116 116 116 116 117 117 117 118 118 118 118 118 118 118 117 117 116 116
115 114 114 113 112 112 111 110 110 109 109 108 108 108 108 107 107 107 107 107 107 107 108 108 108 108 109 109 110 110 111 111 112 113 113 114 114 115 115 116 116 116 116 117 117 117 117 117 117 117 117 117 117 118 118 118 118 118 119 119 119 119 119 119 119 119 119 118 118 117 117 116
115 115 114 113 112 111 111 110 109 109 108 108 108 107 107 107 107 107 107 107 107 107 107 107 108 108 108 109 109 110 111 111 112 113 113 114 115 115 116 116 117 117 118 118 118 118 119 119 119 119 119 119 119 120 120 120 120 120 120 121 121 121 120 120 120 120 119 119 118 118 117 116
115 115 114 113 112 111 111 110 109 109 108 108 107 107 107 107 106 106 106 106 106 107 107 107 107 108 108 109 109 110 111 111 112 113 113 114 115 116 116 117 118 118 119 119 119 120 120 120 120 121 121 121 121 121 121 122 122 122 122 122 122 122 121 121 121 120 120 119 118 118 117 116
115 115 114 113 112 111 111 110 109 109 108 108 107 107 107 106 106 106 106 106 106 106 107 107 107 108 108 109 109 110 111 111 112 113 114 114 115 116 117 117 118 119 119 120 120 121 121 121 122 122 122 122 123 123 123 123 123 123 123 123 123 122 122 122 121 121 120 119 119 118 117 116
115 115 114 113 112 111 111 110 109 109 108 108 107 107 106 106 106 106 106 106 106 106 106 107 107 108 108 109 109 110 111 111 112 113 114 114 115 116 117 118 118 119 120 120 121 121 122 122 123 123 123 123 124 124 124 124 124 124 124 123 123 123 122 122 121 121 120 119 119 118 117 116
115 115 114 113 112 111 111 110 109 109 108 108 107 107 106 106 106 106 106 106 106 106 106 107 107 108 108 109 109 110 111 111 112 113 114 115 115 116 117 118 119 119 120 121 121 122 122 123 123 124 124 124 124 124 124 124 124 124 124 124 124 123 123 122 122 121 120 120 119 118 117 116
115 115 114 113 112 111 111 110 109 109 108 108 107 107 106 106 106 106 106 106 106 106 106 107 107 108 108 109 109 110 111 111 112 113 114 115 115 116 117 118 119 119 120 121 122 122 123 123 124 124 124 125 125 125 125 125 125 125 124 124 124 123 123 122 122 121 120 120 119 118 117 116